X:76
T:Garfield's Blackberry Blossom
C:From Luke Bulla
S:Lyle Lovett, "Release Me" (2012)
Z:abc-transcription Josh Larios <hades@elsewhere.org>, 2015.03.08
M:4/4
L:1/8
N: Scale: Lydian ♭7, mostly?
N: * A - I can't tell what's going on here. He's hitting some in-between notes.
N: * B - The second time through the B part, play variation A.
G:Key: GLyd =f
K:GLyd =f
g2- |: gbge fgfc | dcBd cBG(^f | g)bg=f "^* See note A"dcBc | dg-gd g2 ^a2- | 
^abgb =agfc | d2 fc dcBG | (3B=cB GF D=C (3B,=CD |1 DG-GA G2 g2- :|2 DG-GG, G2 (3DE^F | 
|: GABc d2 (f^f) | dcBd cBG^F | GABc "^* See note B"d2 (=f^f) | dcBG- G2 (3DE^F | 
GABc d2 (f^f) | dcBd cB G2 | (3B=cB GF D=C (3B,=CD |1 DG-GG, G2 (3DE^F :|2 DG-GA G2 g2 |
%%stretchlast 0
||"Variation A"GABc d!slide!f- fc ||

